X:0593
T:A Favourite Highland Air.
M:C
L:1/8
Q:1/4=80 "Slow"
I: |: (1) :| (2) ||
Z:Jack Campin * www.campin.me.uk * 2009
K:D
 D<DD>F            A>B ({B}d2)|({c}B>)AB>F ({F}A>)B ({B}d2)|
 D<DD>F         {F}A>B  {B}d2 | {c}B>Ad>B   {B}A>FED      |:
 D<DD>F         {F}A>B  {B}d2 |    B>AB>F  ({F}A>)B {B}d2  |
(d3/e//f//) g>f {f}e>d {d}Hc2 |[1 TB>Ad>B   {B}A>FEF      :|\
                               [2  B>Ad>B  ({B}A>)FD<E    |]

